X:0405
T:Light and Airy
P:Light and Airy
C:Niel Gow's Collection
R:Jig (8x32)
B:RSCDS 4-5
Z:Anselm Lingnau <anselm@strathspey.org>
M:6/8
L:1/8
K:G
Bc|"G"d3 BdB|GBd gdB|1 d3 BdB|"D"A2B "D7"c2 e:|2 \
                     "Am"cac "G"BgB|"Am"A2B "D7"c2e||
   "G"gag gdB|"Em"gag "D7"[b2f2B2] a|"G"gag gdB |"D"A2B "D7"c2 e|\
   "G"gbg "D7"ac'a|"G"gbg "D"faf|
                                 "G"gfe dcB|"Am"A2B "D7"c2 e||\
   "G"dBG G2B|dBG Bdg|"G"dBG G2B|"D"A2B "D7"c2 e|
   "G"dBG GBd|"G"gfe "G7"dcB|"Am"cac "G"BgB |"Am"A2B "D7"c2e ||\
   "G"gag gdB|"Em"gag "D7"[b2f2B2] a|
                                     "G"gag gdB |"D"A2B "D7"c2 e|\
   "G"gbg "D7"ac'a|"G"gbg "D7"faf|"G"gfe dcB|"D7"[A3F3C3] "G"[G2B,2]|]
